src/img/svg-icons/icon-graphic.svg

<?xml version="1.0" encoding="utf-8"?>
<!-- Generator: Adobe Illustrator 19.1.1, SVG Export Plug-In . SVG Version: 6.00 Build 0)  -->
<svg version="1.1" id="Слой_1" xmlns="http://www.w3.org/2000/svg" xmlns:xlink="http://www.w3.org/1999/xlink" x="0px" y="0px"
	 viewBox="0 0 43.6 38.3" style="enable-background:new 0 0 43.6 38.3;" xml:space="preserve">
<style type="text/css">
	.st0{fill:#FFFFFF;}
</style>
<g id="_x31_">
	<path class="st0" d="M11.8,17c-0.3,0-0.5,0.2-0.5,0.5v7.1c0,0.3,0.2,0.5,0.5,0.5h2.7c0.3,0,0.5-0.2,0.5-0.5v-7.1
		c0-0.3-0.2-0.5-0.5-0.5H11.8z M11.8,17"/>
	<path class="st0" d="M25.7,9.4v15.1c0,0.3,0.2,0.5,0.5,0.5h2.7c0.3,0,0.5-0.2,0.5-0.5V9.4c0-0.3-0.2-0.5-0.5-0.5h-2.7
		C25.9,9,25.7,9.2,25.7,9.4L25.7,9.4z M25.7,9.4"/>
	<path class="st0" d="M21.2,13.1c-0.3,0-0.5,0.2-0.5,0.5v10.9c0,0.3,0.2,0.5,0.5,0.5h2.7c0.3,0,0.5-0.2,0.5-0.5V13.6
		c0-0.3-0.2-0.5-0.5-0.5H21.2z M21.2,13.1"/>
	<path class="st0" d="M16.5,19c-0.3,0-0.5,0.2-0.5,0.5v5c0,0.3,0.2,0.5,0.5,0.5h2.7c0.3,0,0.5-0.2,0.5-0.5v-5c0-0.3-0.2-0.5-0.5-0.5
		H16.5z M16.5,19"/>
</g>
</svg>

<?xml version="1.0" encoding="UTF-8" standalone="no"?>
<!-- Generator: Adobe Illustrator 19.1.1, SVG Export Plug-In . SVG Version: 6.00 Build 0)  -->

<svg
   xmlns:dc="http://purl.org/dc/elements/1.1/"
   xmlns:cc="http://creativecommons.org/ns#"
   xmlns:rdf="http://www.w3.org/1999/02/22-rdf-syntax-ns#"
   xmlns:svg="http://www.w3.org/2000/svg"
   xmlns="http://www.w3.org/2000/svg"
   xmlns:sodipodi="http://sodipodi.sourceforge.net/DTD/sodipodi-0.dtd"
   xmlns:inkscape="http://www.inkscape.org/namespaces/inkscape"
   version="1.1"
   id="Слой_1"
   x="0px"
   y="0px"
   viewBox="0 0 18.100001 16.200001"
   xml:space="preserve"
   sodipodi:docname="icon-graphic.svg"
   width="18.1"
   height="16.200001"
   inkscape:version="0.92.2 (unknown)"><metadata
     id="metadata18"><rdf:RDF><cc:Work
         rdf:about=""><dc:format>image/svg+xml</dc:format><dc:type
           rdf:resource="http://purl.org/dc/dcmitype/StillImage" /><dc:title></dc:title></cc:Work></rdf:RDF></metadata><defs
     id="defs16" /><sodipodi:namedview
     pagecolor="#ffffff"
     bordercolor="#666666"
     borderopacity="1"
     objecttolerance="10"
     gridtolerance="10"
     guidetolerance="10"
     inkscape:pageopacity="0"
     inkscape:pageshadow="2"
     inkscape:window-width="1323"
     inkscape:window-height="744"
     id="namedview14"
     showgrid="false"
     fit-margin-top="0"
     fit-margin-left="0"
     fit-margin-right="0"
     fit-margin-bottom="0"
     inkscape:zoom="6.16188"
     inkscape:cx="10.499999"
     inkscape:cy="5.9500004"
     inkscape:window-x="43"
     inkscape:window-y="24"
     inkscape:window-maximized="1"
     inkscape:current-layer="Слой_1" /><style
     type="text/css"
     id="style2">
	.st0{fill:#FFFFFF;}
</style><g
     id="_x31_"
     transform="translate(-11.3,-8.9)"><path
       class="st0"
       d="m 11.8,17 c -0.3,0 -0.5,0.2 -0.5,0.5 v 7.1 c 0,0.3 0.2,0.5 0.5,0.5 h 2.7 c 0.3,0 0.5,-0.2 0.5,-0.5 V 17.5 C 15,17.2 14.8,17 14.5,17 Z m 0,0"
       id="path4"
       inkscape:connector-curvature="0"
       style="fill:#ffffff" /><path
       class="st0"
       d="m 25.7,9.4 v 15.1 c 0,0.3 0.2,0.5 0.5,0.5 h 2.7 c 0.3,0 0.5,-0.2 0.5,-0.5 V 9.4 C 29.4,9.1 29.2,8.9 28.9,8.9 H 26.2 C 25.9,9 25.7,9.2 25.7,9.4 Z m 0,0"
       id="path6"
       inkscape:connector-curvature="0"
       style="fill:#ffffff" /><path
       class="st0"
       d="m 21.2,13.1 c -0.3,0 -0.5,0.2 -0.5,0.5 v 10.9 c 0,0.3 0.2,0.5 0.5,0.5 h 2.7 c 0.3,0 0.5,-0.2 0.5,-0.5 V 13.6 c 0,-0.3 -0.2,-0.5 -0.5,-0.5 z m 0,0"
       id="path8"
       inkscape:connector-curvature="0"
       style="fill:#ffffff" /><path
       class="st0"
       d="M 16.5,19 C 16.2,19 16,19.2 16,19.5 v 5 c 0,0.3 0.2,0.5 0.5,0.5 h 2.7 c 0.3,0 0.5,-0.2 0.5,-0.5 v -5 C 19.7,19.2 19.5,19 19.2,19 Z m 0,0"
       id="path10"
       inkscape:connector-curvature="0"
       style="fill:#ffffff" /></g></svg>
